src/xmb/retrosystem/Casio - PV-1000-content.svg

<?xml version="1.0" encoding="UTF-8" standalone="no"?>
<svg
   xmlns:dc="http://purl.org/dc/elements/1.1/"
   xmlns:cc="http://creativecommons.org/ns#"
   xmlns:rdf="http://www.w3.org/1999/02/22-rdf-syntax-ns#"
   xmlns:svg="http://www.w3.org/2000/svg"
   xmlns="http://www.w3.org/2000/svg"
   xmlns:sodipodi="http://sodipodi.sourceforge.net/DTD/sodipodi-0.dtd"
   xmlns:inkscape="http://www.inkscape.org/namespaces/inkscape"
   viewBox="0 0 341.33334 341.33334"
   height="256"
   width="256"
   xml:space="preserve"
   id="svg2"
   version="1.1"
   sodipodi:docname="Casio - PV-1000-content.svg"
   inkscape:version="0.92.2 (5c3e80d, 2017-08-06)"><sodipodi:namedview
     pagecolor="#ffffff"
     bordercolor="#666666"
     borderopacity="1"
     objecttolerance="10"
     gridtolerance="10"
     guidetolerance="10"
     inkscape:pageopacity="0"
     inkscape:pageshadow="2"
     inkscape:window-width="1920"
     inkscape:window-height="1001"
     id="namedview24"
     showgrid="false"
     inkscape:pagecheckerboard="true"
     showguides="false"
     inkscape:zoom="3.9111842"
     inkscape:cx="161.62049"
     inkscape:cy="132.67717"
     inkscape:window-x="-9"
     inkscape:window-y="-9"
     inkscape:window-maximized="1"
     inkscape:current-layer="svg2" /><metadata
     id="metadata8"><rdf:RDF><cc:Work
         rdf:about=""><dc:format>image/svg+xml</dc:format><dc:type
           rdf:resource="http://purl.org/dc/dcmitype/StillImage" /><dc:title /></cc:Work></rdf:RDF></metadata><defs
     id="defs6"><clipPath
       id="clipPath18"
       clipPathUnits="userSpaceOnUse"><path
         id="path16"
         d="M 0,256 H 256 V 0 H 0 Z" /></clipPath><clipPath
       id="clipPath26"
       clipPathUnits="userSpaceOnUse"><path
         id="path24"
         d="M 4,208 H 252 V 48 H 4 Z" /></clipPath></defs><g
     id="g36"
     transform="matrix(1.3333333,0,0,-1.3333333,325.33333,90.66667)"><path
       inkscape:connector-curvature="0"
       d="M 0,0 V 12 H -232 V 0 h 4 v -4 h -4 v -4 h 4 v -4 h -4 v -4 h 4 v -4 h -4 V -132 H 0 v 112 h -4 v 4 h 4 v 4 h -4 v 4 h 4 v 4 h -4 v 4 z"
       style="fill:#353535;fill-opacity:1;fill-rule:nonzero;stroke:none"
       id="path38" /></g><path
     inkscape:connector-curvature="0"
     d="M 31.999999,256 H 309.33333 V 160 H 31.999999 Z"
     style="fill:#e6e6e6;fill-opacity:1;fill-rule:nonzero;stroke:none;stroke-width:1.33333325"
     id="path40" /><path
     inkscape:connector-curvature="0"
     d="M 309.33333,165.33333 H 31.999999 V 74.66667 H 309.33333 Z"
     style="fill:#808080;fill-opacity:1;fill-rule:nonzero;stroke:none;stroke-width:1.33333325"
     id="path42" /><path
     inkscape:connector-curvature="0"
     d="M 31.999999,181.33333 H 250.66666 v -16 H 31.999999 Z"
     style="fill:#262626;fill-opacity:1;fill-rule:nonzero;stroke:none;stroke-width:1.33333325"
     id="path44" /><path
     inkscape:connector-curvature="0"
     d="m 309.33333,208 h -58.66667 v -42.66667 h 58.66667 z"
     style="fill:#cccccc;fill-opacity:1;fill-rule:nonzero;stroke:none;stroke-width:1.33333325"
     id="path46" /><g
     id="g872"
     transform="matrix(1.9999824,0,0,1.99995,-271.92119,-258.2404)"
     style="fill:#800000"><g
       transform="matrix(1.3333333,0,0,-1.3333333,161.29535,247.12598)"
       id="g102"
       style="fill:#800000"><path
         id="path104"
         style="fill:#800000;fill-opacity:1;fill-rule:nonzero;stroke:none"
         d="M 0,0 14.062,12 V 6.757 L 20.009,12 V 3.946 c 0,0 4.088,7.676 4.336,7.676 0.248,0 9.726,-0.054 9.726,-0.054 L 32.522,8.757 H 26.885 L 26.08,7.243 h 3.159 L 27.381,4.108 H 24.965 L 24.283,2.865 h 11.398 l 0.744,1.189 h -5.699 l 4.398,7.622 h 9.911 L 43.301,8.703 h -5.637 l -0.929,-1.46 h 5.823 L 38.469,0 H 15.735 L 15.858,3.892 11.336,0 11.15,3.946 6.628,0 Z"
         inkscape:connector-curvature="0" /></g><g
       transform="matrix(1.3333333,0,0,-1.3333333,221.34254,231.7025)"
       id="g106"
       style="fill:#800000"><path
         id="path108"
         style="fill:#800000;fill-opacity:1;fill-rule:nonzero;stroke:none"
         d="M 0,0 C 0,0 -0.044,0 -0.121,0.001 L -1.215,-2.205 Z"
         inkscape:connector-curvature="0" /></g><g
       transform="matrix(1.3333333,0,0,-1.3333333,233.64934,235.52238)"
       id="g110"
       style="fill:#800000"><path
         id="path112"
         style="fill:#800000;fill-opacity:1;fill-rule:nonzero;stroke:none"
         d="m 0,0 1.735,2.973 h -9.912 l -4.398,-7.622 h 5.699 l -0.743,-1.189 h -5.493 l -1.684,-2.865 h 9.964 l 4.089,7.244 H -6.566 L -5.637,0 Z"
         inkscape:connector-curvature="0" /></g></g></svg>

<svg xmlns="http://www.w3.org/2000/svg" xml:space="preserve" width="256" height="256" viewBox="0 0 341.333 341.333"><path d="M0 0v12h-232V0h4v-4h-4v-4h4v-4h-4v-4h4v-4h-4v-112H0v112h-4v4h4v4h-4v4h4v4h-4v4z" style="fill:#353535;fill-opacity:1;fill-rule:nonzero;stroke:none" transform="matrix(1.33333 0 0 -1.33333 325.333 90.667)"/><path d="M32 256h277.333v-96H32Z" style="fill:#e6e6e6;fill-opacity:1;fill-rule:nonzero;stroke:none;stroke-width:1.33333325"/><path d="M309.333 165.333H32V74.667h277.333Z" style="fill:gray;fill-opacity:1;fill-rule:nonzero;stroke:none;stroke-width:1.33333325"/><path d="M32 181.333h218.667v-16H32Z" style="fill:#262626;fill-opacity:1;fill-rule:nonzero;stroke:none;stroke-width:1.33333325"/><path d="M309.333 208h-58.666v-42.667h58.666z" style="fill:#ccc;fill-opacity:1;fill-rule:nonzero;stroke:none;stroke-width:1.33333325"/><g style="fill:maroon"><g style="fill:maroon"><path d="m0 0 14.062 12V6.757L20.009 12V3.946s4.088 7.676 4.336 7.676 9.726-.054 9.726-.054l-1.549-2.811h-5.637l-.805-1.514h3.159l-1.858-3.135h-2.416l-.682-1.243h11.398l.744 1.189h-5.699l4.398 7.622h9.911l-1.734-2.973h-5.637l-.929-1.46h5.823L38.469 0H15.735l.123 3.892L11.336 0l-.186 3.946L6.628 0Z" style="fill:maroon;fill-opacity:1;fill-rule:nonzero;stroke:none" transform="matrix(2.66664 0 0 -2.6666 50.667 236)"/></g><g style="fill:maroon"><path d="m0 0-.121.001-1.094-2.206Z" style="fill:maroon;fill-opacity:1;fill-rule:nonzero;stroke:none" transform="matrix(2.66664 0 0 -2.6666 170.76 205.153)"/></g><g style="fill:maroon"><path d="m0 0 1.735 2.973h-9.912l-4.398-7.622h5.699l-.743-1.189h-5.493l-1.684-2.865h9.964l4.089 7.244h-5.823L-5.637 0Z" style="fill:maroon;fill-opacity:1;fill-rule:nonzero;stroke:none" transform="matrix(2.66664 0 0 -2.6666 195.373 212.793)"/></g></g></svg>
